X:1
T:Speak, My Lord
T:George Bennard, 1911
T:Speak, My Lord
T:Public Domain
T:Public Domain
T:Public Domain
C:George Bennard, 1911
Z:Public Domain
%%score ( 1 2 ) ( 3 4 )
L:1/8
M:4/4
K:G
V:1 treble 
V:2 treble 
V:3 bass 
V:4 bass 
V:1
 [DB]>[^C^A] [DB]>[CA] [DB]>[=CF] [C=A]>[DG] | [DF]2 ([CE]4 E2) | %2
w: 1.~Hear the Lord of har- vest sweet- ly|call- ing, *|
w: 2.~When the coal of fi- re touched the|pro- phet, *|
w: 3.~Mil- lions now in sin and shame are|dy- ing, *|
w: 4.~Soon the time for reap- ing will be|o- ver; *|
 [Ec]>[EB] [Ec]>[DB] [Fc]>[CE] [CF]>[CE] | [B,D]6 z2 | [DB]>[^C^A] [DB]>[CA] [DB]>[CA] [DB]>[=Fd] | %5
w: “Who will go and work for Me to-|day?|Who will bring to Me the lost and|
w: Mak- ing him as pure, as pure can|be,|When the voice of God said, “Who’ll go|
w: List- en to their sad and bit- ter|cry;|Hast- en, bro- ther, hast- en to the|
w: Soon we’ll ga- ther for the har- vest|home;|May the Lord of har- vest smile up-|
 [=Fd]2 [Ec]6 | [DB]>[DB] [Dc]>[DB] [DB]>[CA] [DB]>[CA] | [B,G]6 ||"^Refrain" [DB]>[B,G] | %9
w: dy- ing?|Who will point them to the nar- row|way?”||
w: for us?”|Then he an- swered, “Here I am, send|me.”|Speak, my|
w: res- cue;|Quick- ly an- swer, “Mas- ter, here am|I.”||
w: on us,|May we hear His bless- èd, “Child, well|done.”||
 (B,2 B,>B, B,2) [B,G]>[B,E] | (C2 C>C C2) z2 | [CD]>[CE] [CF]>[CG] [CA]>[C^G] [CA]>[E^A] | %12
w: |||
w: Lord, * * * speak, my|Speak, * * *|I’ll be quick to an- swer Thee; Speak,|
w: |||
w: |||
 (D>G F>E D2) [DB]>[B,G] | (B,2 B,>B, B,2) [=FB]>[FB] | [Ec]6 z2 | %15
w: |||
w: my * * * * Lord, speak,|Lord, * * * Speak, and|will|
w: |||
w: |||
 [DB]>[CA] [Ec]>[DB] [DB]<[CA] [DB]>[CA] | (B,2 C>C B,2) z2 |] %17
w: ||
w: an- swer, “Lord, send me.” * * *||
w: ||
w: ||
V:2
 x8 | x8 | x8 | x8 | x8 | x8 | x8 | x6 || x2 | D6 x2 | F6 x2 | x8 | B6 x2 | D6 x2 | x8 | x8 | %16
w: ||||||||||||||||
w: |||||||||Lord,|and||my|I|||
 G6 x2 |] %17
w: |
w: |
V:3
 G,>G, G,>G, G,>G, G,>[B,,G,] | [C,G,]2 ([C,G,]4 [B,,^G,]2) | %2
w: ~ ~ ~ ~ ~ ~ ~ ~|~ ~ *|
 [A,,A,]>[A,,A,] [A,,A,]>[A,,A,] [D,A,]>[D,A,] [D,A,]>[D,F,] | (z2 D,2 B,,2 A,,2) | %4
w: ~ ~ ~ ~ ~ ~ ~ ~||
 G,>G, G,>G, G,>G, G,>[B,,G,] | [C,G,]2 [C,G,]6 | %6
w: * ~ ~ ~ ~ ~ ~ ~|Lord, speak,|
 [D,G,]>[D,G,] [D,A,]>[D,G,] [D,G,]>[D,G,] [D,G,]>[D,G,] | G,6 || z2 | %9
w: my Lord ~ ~ ~ ~ ~ ~|~||
 z2 [G,,B,]>[G,,G,] [G,,D,]2 z2 | z2 [A,,A,]>[A,,E,] [D,F,]2 z2 | %11
w: to~answer~Thee; Speak, my|Lord, ~ ~|
 [D,F,]>[D,G,] [D,A,]>[D,E,] [D,F,]>[D,^E,] [D,F,]>[D,F,] | G,6 z2 | %13
w: ~ ~ ~ ~ ~ ~ ~ ~|~|
 z2 [B,,B,]>[G,,G,] [G,,D,]2 [G,D]>[G,D] | [C,C]6 z2 | %15
w: ~ “Lord, send me.” *||
 [D,G,]>[D,G,] [D,G,]>[D,G,] [D,F,]<[D,F,] [D,F,]>[D,F,] | G,2 E,>E, D,2 z2 |] %17
w: ||
V:4
 G,>G, G,>G, G,>G, G,3/2 x/ | x8 | x8 | G,6 x2 | G,>G, G,>G, G,>G, G,3/2 x/ | x8 | x8 | G,6 || x2 | %9
w: ~ ~ ~ ~ ~ ~ ~|||~|~ ~ ~ ~ ~ Speak, my|||~||
 x8 | x8 | x8 | x8 | x8 | x8 | x8 | G,,6 x2 |] %17
w: ||||||||

